img/blog_inner/vk.svg

<svg width="50" height="50" viewBox="0 0 50 50" fill="none" xmlns="http://www.w3.org/2000/svg">
<rect width="50" height="50" rx="10" fill="#4B76A4"/>
<path fill-rule="evenodd" clip-rule="evenodd" d="M21.3749 14.5959C20.6695 14.6475 19.7754 14.785 19.4176 14.8968C18.8032 15.0889 18.0377 15.7737 18.1793 16.0046C18.2053 16.047 18.3478 16.1044 18.4959 16.1321C19.1608 16.2565 19.7216 16.6365 19.973 17.133C20.4026 17.9816 20.5959 20.636 20.3647 22.515C20.212 23.7571 20.1474 24.045 19.9209 24.4954C19.3133 25.7035 17.9178 24.7255 16.38 22.0138C15.8327 21.0489 14.2925 17.9518 13.9488 17.1253C13.5334 16.1265 13.4019 15.9426 12.9296 15.7004L12.531 15.4961L9.52265 15.5178C6.80599 15.5375 6.49153 15.5522 6.27935 15.6689C5.94299 15.8542 5.79932 16.107 5.84383 16.4359C5.89145 16.7882 7.03245 19.3436 7.87327 20.9812C9.51025 24.1693 10.8967 26.4844 12.3788 28.5044C14.5587 31.4753 15.5232 32.4393 17.7503 33.8731C18.7903 34.5425 19.5408 34.9171 20.4687 35.2295C21.7436 35.6588 22.2986 35.7414 24.202 35.7853C26.0962 35.8289 26.6405 35.7739 27.0419 35.498C27.3724 35.2708 27.4747 34.9573 27.5364 33.9825C27.5973 33.0204 27.7837 32.1955 28.0401 31.7549C28.2662 31.3661 28.7576 30.9172 28.9685 30.9066C29.7042 30.8701 30.1162 31.1781 31.6532 32.9142C33.0943 34.5418 33.627 35.0208 34.4231 35.4049C34.782 35.578 35.2224 35.7536 35.4018 35.7951C35.8366 35.8956 41.7078 35.7826 42.0868 35.6664C42.4621 35.5513 42.8664 35.1518 42.8756 34.8869C42.9009 34.1618 42.7961 33.8349 42.2926 33.0689C41.631 32.0621 41.0625 31.4192 39.1272 29.4888C37.0721 27.4388 36.9286 27.248 36.9257 26.5622C36.9232 25.9865 37.1903 25.5442 38.9945 23.1359C41.5396 19.7386 42.5587 18.0976 42.8421 16.9407C43.0083 16.2623 42.9137 15.9349 42.4848 15.7039L42.1796 15.5396L38.5189 15.5641C35.931 15.5814 34.8058 15.6136 34.6795 15.6737C34.4339 15.7906 34.1734 16.217 33.847 17.0369C32.9775 19.2206 31.1872 22.3666 30.0075 23.784C29.538 24.3481 28.8084 24.9254 28.565 24.9254C28.2252 24.9254 27.945 24.7043 27.7326 24.2686L27.5365 23.8663L27.5564 20.0741C27.5778 15.996 27.5686 15.8755 27.194 15.337C26.8251 14.8067 25.9256 14.6248 23.5133 14.5929C22.5365 14.5799 21.5742 14.5813 21.3749 14.5959Z" fill="white"/>
</svg>

<svg width="50" height="50" fill="none" xmlns="http://www.w3.org/2000/svg"><rect width="50" height="50" rx="10" fill="#4B76A4"/><path fill-rule="evenodd" clip-rule="evenodd" d="M21.375 14.596c-.706.052-1.6.189-1.957.3-.615.193-1.38.878-1.239 1.109.026.042.169.1.317.127.665.124 1.226.505 1.477 1.001.43.849.623 3.503.392 5.382-.153 1.242-.218 1.53-.444 1.98-.608 1.208-2.003.23-3.541-2.481-.547-.965-2.087-4.062-2.431-4.889-.416-.998-.547-1.182-1.02-1.425l-.398-.204-3.008.022c-2.717.02-3.031.034-3.244.15-.336.186-.48.439-.435.768.047.352 1.188 2.908 2.03 4.545 1.636 3.188 3.023 5.503 4.505 7.523 2.18 2.971 3.144 3.935 5.371 5.37 1.04.668 1.79 1.043 2.719 1.355 1.275.43 1.83.512 3.733.556 1.894.044 2.438-.011 2.84-.287.33-.227.433-.54.494-1.515.061-.963.248-1.787.504-2.228.226-.389.718-.838.928-.848.736-.037 1.148.271 2.685 2.007 1.441 1.628 1.974 2.107 2.77 2.49.359.174.8.35.979.391.435.1 6.306-.012 6.685-.129.375-.115.78-.514.789-.78.025-.724-.08-1.051-.583-1.817-.662-1.007-1.23-1.65-3.166-3.58-2.055-2.05-2.198-2.241-2.201-2.927-.003-.576.264-1.018 2.069-3.426 2.545-3.397 3.564-5.038 3.847-6.195.166-.679.072-1.006-.357-1.237l-.305-.164-3.661.024c-2.588.017-3.713.05-3.84.11-.245.117-.506.543-.832 1.363-.87 2.184-2.66 5.33-3.84 6.747-.469.564-1.199 1.141-1.442 1.141-.34 0-.62-.22-.832-.656l-.197-.403.02-3.792c.022-4.078.013-4.199-.362-4.737-.369-.53-1.268-.712-3.68-.744-.977-.013-1.94-.012-2.14.003Z" fill="#fff"/></svg>
